X:871
T:With A Shellelagh Under Me Arm 
C:Joe Buchanan's Scottish Tome - Page 432.1
I:432 1
R:Two-step
Z:Carl Allison
L:1/8
M:6/8
K:D
ABc | "D"d2 D D2 C | D3 (d2 c) | "G"B2 G d2 B | "D"A3 "A7"(B2 c) |
"D"d2 c d2 B | "Bm"A2 F E2 D | "E7"F6 | "A7"E3 ABc |
"D"d2 D D2 C | "D"D3 "D7"d2 c | "G"B2 G d2 B | "D"A3 B2 c |
"G"d2 c "E7"d2 B | "D"A2 B "Bm"d2 f | "E7"e6"A7" | "D"d3 |]

